!!!OTL: Everything Is Peaches down in Georgia
!!!COM: Ager, Milton
!!!COM: Meyer, George W.
!!!LAR: Frey, Hugo
!! "Everything Is Peaches Down in Georgia" by Milton Ager and Geo. W. Meyer
!! from "Barbershop Memories" compiled and arranged by Hugo Frey
!! copyright 1975 by EMI Music Publ. Ltd.; p. 20-21; alla breve; in G major
**kern	**kern	**kern	**kern
*Ivox	*Ivox	*Ivox	*Ivox
*M2/2	*M2/2	*M2/2	*M2/2
*G:	*G:	*G:	*G:
=1	=1	=1	=1
4GG	4G	4D	4B
4GG	4G	4E	4B
4GG	4G	4G	4B
4D	4F#	4A	4c
=2	=2	=2	=2
8GG	8D	8B	8d
4GG	4D	4d	4B
[8GG	[8D	[8B	[8B
4GG]	4D]	4B]	4B]
4BB	4G	4G	4d
=3	=3	=3	=3
2BB	2G#	2F#	2d
[2BB	[2G#	[2E	[2d
=4	=4	=4	=4
4BB]	4G]	4E]	4d]
8.E	8.G#	8.e	8.B
16E	16G#	16d#	16B
8.E	8.G#	8.e	8.B
16E	16G#	16dn	16dn
4E	4G#	4B	4d
=5	=5	=5	=5
2E	2Gn	[1A	2c#
8E	8G	.	8c#
4E	4G	.	4c#
8E-	8G	.	8c#
=6	=6	=6	=6
4D	4F#	4A]	4cn
8.D	8.A	8.d	8.f#
16D	16G#	16c#	16e#
8.D	8.A	8.d	8.f#
16D	16Gn	16cn	16en
4D	4F#	4A	4d
=7	=7	=7	=7
{4GG	2B	[1d	2g
4G}	.	.	.
8G	8B	.	8e
8G	8B	.	8e
4G#	4B	.	4e#
=8	=8	=8	=8
4A	4c	4d]	4f#
4D	4A	4c	4f#
4D	4F#	4A	4c
4AA	4D	4F#	4c
=9	=9	=9	=9
4GG	4G	4D	4B
4GG	4G	4E	4B
4GG	4G	4G	4B
4D	4F#	4A	4c
=10	=10	=10	=10
8D	8G	8B	8d
4D	4G	4d	4B
[8E	[8G	[8B	[8e
4E]	4G]	4B]	4e]
4BB-	4E	4G	4d
=11	=11	=11	=11
2AA	2A	2F#	2d
{4F#	{4A	[2A	{4d
4E	4G	.	4c#
=12	=12	=12	=12
4D}	4F#}	4A]	4d}
4Fn	4B	4G#	4d
4F#	4A	4A	4d
4Fn	4G#	4B-	4d
=13	=13	=13	=13
{2.E	1Gn	8Bn	[{2.g
.	.	8c#	.
.	.	8A	.
.	.	[8B	.
.	.	2B]	.
4AA}	.	.	4c#}]
=14	=14	=14	=14
{2.E	1G	8B	1g
.	.	8c#	.
.	.	8A	.
.	.	[8B	.
.	.	2B]	.
4AA}	.	.	.
=15	=15	=15	=15
4AA	4G	4B	4c#
8.AA	8.G	8.B	8.c#
16AA	16G	16A	16c#
4E	4G	4B	4c#
8.E	8.G	8.B	8.c#
16E	16G	16A	16c#
=16	=16	=16	=16
8E	8G	8B	8c#
8AA	8G	8A	8c#
8AA	8G	8B	8c#
[8D	[8F#	[8d	8cn
2D]	2F#]	2d]	2c
=17	=17	=17	=17
4GG	4G	4D	4B
4GG	4G	4E	4B
4GG	4G	4G	4B
4D	4F#	4A	4c
=18	=18	=18	=18
8GG	8D	8B	8d
4GG	4D	4d	4B
[8GG	[8D	[8B	[8B
4GG]	4D]	4B]	4B]
4BB	4G	4G	4d
=19	=19	=19	=19
2BB	2G#	2F#	2d
[2BB	[2G#	[2E	[2d
=20	=20	=20	=20
4BB]	4G#]	4E]	4d]
8.E	8.G#	8.e	8.B
16E	16G#	16d#	16B
8.E	8.G#	8.e	8.B
16E	16G#	16dn	16dn
4E	4G#	4B	4d
=21	=21	=21	=21
2E	2Gn	[1A	2c#
8E	8G	.	8c#
4E	4G	.	4c#
8E-	8G	.	8c#
=22	=22	=22	=22
4D	4F#	4A]	4cn
8.D	8.A	8.d	8.f#
16D	16G#	16c#	16e#
8.D	8.A	8.d	8.f#
16D	16Gn	16cn	16en
4C	4F#	4A	4d
=23	=23	=23	=23
2BB	2G	[1d	2e
2AA	2c	.	2f#
=24	=24	=24	=24
4GG	4B	4d]	4g
4G	4B	4B	4d
4F#	4A	4c	4d
4E	4A#	4c#	4g
=25	=25	=25	=25
4D	4B	4d	4g
4D	4B	4d	4g
4A	4c	4d	4f#
4A	4c	4d	4f#
=26	=26	=26	=26
8G	8B	8d	8fn
8G	8B	8B	8f
8D	8c	8A	8f
[8D	[8B	[8G	[8f
2D]	2B]	2G]	2f]
=27	=27	=27	=27
4C	4G	4e	4c
4C	4G	4e	4c
4BB	4G#	4e	4d
8.E	8.G#	8.e	8.d
16E	16G#	16d#	16B
=28	=28	=28	=28
8AA	8Gn	8e	8c#
8AA	8G	8c#	8c#
8BB	8G	8B	8e
[8C#	[8G	[8A	[8e
2C#]	2G]	2A]	2e]
=29	=29	=29	=29
4D	4F#	4F#	4d
4D	4E	4G	4d
4D	4E#	4G#	4d
4D	4F#	4A	4d
=30	=30	=30	=30
8D	8G	8d	8B
4D	4G	4e	4c
[8E	[8G#	[8d	[8B
4E]	4G#]	4d]	4B]
4E	4G#	4B	4e
=31	=31	=31	=31
{2AA	{2Gn	1A	{2c#
2D}	2F#}	.	2cn}
=32	=32	=32	=32
[2GG	[2D	[2G	[2B
4GG]	4D]	4G]	4B]
4r	4r	4r	4r
==	==	==	==
*-	*-	*-	*-
